X:29
T: Bian qu shi chang
N: C0038
O: China, Gansu, Longdong, N?he v. Shaanxi)
S: I, 125]
N: Zwei Menschen drehten einen schweren Muehlstein. Meine Frage, ob
N: dies ein Arbeitslied sei, wurde verneint: Das sei schliesslich
N: Hausarbeit.Die 10. Strophe endet im letzten Takt eine Oktave hoeher.
N: Einige Akzente und ein Glissando.
R: Xiaodiao, Xiuhebao diao. Geming lishi minge]
M: 2/4
L: 1/16
K: C
d2d2d2cA | d4d4 | g2d2d2cA | G4G4 |
Ad2ddedc | AAAcDDDD | G^GF=GA4 | c2cAGAGE | D4D4

